static/fa/svgs/solid/diagram-project.svg

<svg xmlns="http://www.w3.org/2000/svg" viewBox="0 0 576 512"><!--! Font Awesome Free 6.1.1 by @fontawesome - https://fontawesome.com License - https://fontawesome.com/license/free (Icons: CC BY 4.0, Fonts: SIL OFL 1.1, Code: MIT License) Copyright 2022 Fonticons, Inc.--><path d="M0 80c0-26.51 21.49-48 48-48h96c26.5 0 48 21.49 48 48v16h192V80c0-26.51 21.5-48 48-48h96c26.5 0 48 21.49 48 48v96c0 26.5-21.5 48-48 48h-96c-26.5 0-48-21.5-48-48v-16H192v16c0 1.7-.1 3.4-.3 4.1L272 288h96c26.5 0 48 21.5 48 48v96c0 26.5-21.5 48-48 48h-96c-26.5 0-48-21.5-48-48v-96c0-1.7.1-3.4.3-5L144 224H48c-26.51 0-48-21.5-48-48V80z"/></svg>

<svg xmlns="http://www.w3.org/2000/svg" viewBox="0 0 576 512"><!--! Font Awesome Free 6.1.1 by @fontawesome - https://fontawesome.com License - https://fontawesome.com/license/free (Icons: CC BY 4.0, Fonts: SIL OFL 1.1, Code: MIT License) Copyright 2022 Fonticons, Inc. --><path d="M0 80C0 53.49 21.49 32 48 32H144C170.5 32 192 53.49 192 80V96H384V80C384 53.49 405.5 32 432 32H528C554.5 32 576 53.49 576 80V176C576 202.5 554.5 224 528 224H432C405.5 224 384 202.5 384 176V160H192V176C192 177.7 191.9 179.4 191.7 180.1L272 288H368C394.5 288 416 309.5 416 336V432C416 458.5 394.5 480 368 480H272C245.5 480 224 458.5 224 432V336C224 334.3 224.1 332.6 224.3 331L144 224H48C21.49 224 0 202.5 0 176V80z"/></svg>
